X:8
T:Potiron
R:Mixer
C:Michel Taffard
Z:Transcrit et/ou corrig par Michel BELLON - 2006-04-09
Z:Pour toute observation mailto:galouvielle@free.fr
M:6/8
L:1/8
K:G
D | "G"B2c d2e | dcB "Am"c2E | c2d e2f | "D"edc d2D | "G"B2c d2e | dcB "D"A3 | ag=f edc | BAF G3 || 
"C"gec gec | "G"dBG dBG | "D"ABc def | efe d3 | "C"gec gec | "G"dBG dBG | "D"ABc dcB | ABA "G"G2 |]
%%footer $D   Galouvielle-MBe 2006 \nBranle (--)
